icons/gt.svg

<?xml version="1.0" ?>
<svg xmlns="http://www.w3.org/2000/svg" xmlns:ev="http://www.w3.org/2001/xml-events" xmlns:xlink="http://www.w3.org/1999/xlink" baseProfile="full" height="600px" version="1.1" viewBox="-741.62 -1029.12 11728.24 12298.24" width="573px">
	<defs/>
	<path d="M 3330.0,9529.0 L 3330.0,8818.0 L 3113.0,8824.0 C 2632.0,8837.0 2284.0,8841.0 2268.0,8835.0 C 2255.0,8830.0 2250.0,8817.0 2250.0,8790.0 C 2250.0,8749.0 2251.0,8748.0 2317.0,8735.0 C 2338.0,8731.0 2368.0,8709.0 2404.0,8672.0 C 2457.0,8618.0 2459.0,8616.0 2478.0,8633.0 C 2493.0,8647.0 2507.0,8649.0 2539.0,8644.0 C 2594.0,8635.0 2619.0,8614.0 2639.0,8559.0 C 2652.0,8525.0 2667.0,8508.0 2707.0,8481.0 C 2752.0,8453.0 2761.0,8441.0 2774.0,8398.0 C 2799.0,8310.0 2825.0,8283.0 2917.0,8248.0 L 2998.0,8217.0 L 3005.0,8174.0 C 3009.0,8147.0 3019.0,8124.0 3033.0,8113.0 C 3073.0,8081.0 3113.0,8020.0 3125.0,7972.0 C 3137.0,7926.0 3138.0,7925.0 3186.0,7915.0 C 3214.0,7910.0 3249.0,7895.0 3264.0,7883.0 C 3305.0,7850.0 3320.0,7853.0 3320.0,7895.0 C 3320.0,7927.0 3323.0,7930.0 3349.0,7930.0 C 3389.0,7930.0 3408.0,7905.0 3386.0,7881.0 C 3370.0,7864.0 3372.0,7860.0 3428.0,7802.0 C 3478.0,7752.0 3495.0,7740.0 3540.0,7731.0 C 3569.0,7725.0 3604.0,7711.0 3617.0,7700.0 C 3636.0,7685.0 3658.0,7680.0 3700.0,7680.0 L 3757.0,7680.0 L 3769.0,7639.0 C 3779.0,7605.0 3788.0,7596.0 3827.0,7579.0 C 3902.0,7547.0 3927.0,7523.0 4018.0,7401.0 L 4104.0,7285.0 L 4105.0,7218.0 C 4105.0,7154.0 4106.0,7151.0 4130.0,7148.0 C 4150.0,7146.0 4154.0,7140.0 4152.0,7120.0 C 4150.0,7106.0 4146.0,7069.0 4143.0,7037.0 L 4138.0,6980.0 L 4174.0,6965.0 C 4214.0,6948.0 4216.0,6942.0 4195.0,6914.0 C 4174.0,6886.0 4176.0,6883.0 4228.0,6876.0 C 4254.0,6872.0 4300.0,6864.0 4330.0,6859.0 C 4360.0,6854.0 4410.0,6846.0 4440.0,6842.0 C 4512.0,6832.0 4520.0,6826.0 4520.0,6780.0 L 4520.0,6742.0 L 4589.0,6735.0 C 4637.0,6730.0 4664.0,6722.0 4675.0,6710.0 C 4684.0,6700.0 4698.0,6694.0 4705.0,6697.0 C 4715.0,6700.0 4721.0,6690.0 4726.0,6663.0 C 4729.0,6642.0 4737.0,6619.0 4743.0,6612.0 C 4755.0,6597.0 4755.0,6598.0 4710.0,6575.0 L 4676.0,6557.0 L 4705.0,6533.0 L 4735.0,6509.0 L 4677.0,6458.0 L 4619.0,6407.0 L 4647.0,6394.0 C 4667.0,6385.0 4670.0,6381.0 4656.0,6381.0 C 4642.0,6380.0 4639.0,6375.0 4643.0,6358.0 C 4648.0,6340.0 4642.0,6330.0 4615.0,6312.0 C 4573.0,6285.0 4571.0,6273.0 4606.0,6264.0 L 4631.0,6258.0 L 4610.0,6235.0 C 4598.0,6222.0 4586.0,6194.0 4583.0,6173.0 C 4578.0,6137.0 4581.0,6132.0 4614.0,6110.0 L 4649.0,6085.0 L 4624.0,6059.0 L 4599.0,6033.0 L 4627.0,6012.0 C 4654.0,5992.0 4654.0,5991.0 4633.0,5990.0 C 4607.0,5990.0 4575.0,5947.0 4584.0,5925.0 C 4587.0,5917.0 4599.0,5910.0 4610.0,5910.0 C 4627.0,5910.0 4630.0,5906.0 4625.0,5888.0 C 4621.0,5875.0 4615.0,5862.0 4611.0,5858.0 C 4608.0,5854.0 3912.0,5855.0 3066.0,5860.0 C 1617.0,5869.0 1526.0,5868.0 1514.0,5852.0 C 1483.0,5811.0 1268.0,5442.0 963.0,4910.0 C 782.0,4594.0 567.0,4230.0 487.0,4101.0 C 391.0,3949.0 340.0,3858.0 340.0,3841.0 C 340.0,3821.0 386.0,3752.0 505.0,3594.0 C 595.0,3474.0 670.0,3368.0 670.0,3360.0 C 670.0,3352.0 657.0,3323.0 641.0,3297.0 C 618.0,3258.0 600.0,3242.0 549.0,3217.0 L 485.0,3185.0 L 488.0,3046.0 L 492.0,2908.0 L 462.0,2876.0 C 379.0,2790.0 363.0,2732.0 400.0,2660.0 C 411.0,2638.0 420.0,2610.0 420.0,2597.0 C 420.0,2584.0 429.0,2536.0 441.0,2491.0 C 466.0,2391.0 461.0,2334.0 425.0,2300.0 C 399.0,2275.0 380.0,2224.0 380.0,2177.0 C 380.0,2157.0 369.0,2138.0 340.0,2113.0 C 318.0,2093.0 300.0,2069.0 300.0,2059.0 C 300.0,2044.0 294.0,2042.0 270.0,2047.0 C 254.0,2050.0 240.0,2049.0 240.0,2045.0 C 240.0,2023.0 317.0,1938.0 358.0,1914.0 C 424.0,1876.0 692.0,1674.0 770.0,1603.0 C 840.0,1540.0 1207.0,1242.0 1268.0,1199.0 C 1323.0,1160.0 1405.0,1111.0 1495.0,1064.0 C 1539.0,1040.0 1612.0,990.0 1656.0,952.0 C 1748.0,874.0 1934.0,768.0 2083.0,709.0 C 2137.0,687.0 2213.0,654.0 2252.0,634.0 C 2291.0,614.0 2419.0,569.0 2536.0,534.0 C 2702.0,484.0 2786.0,465.0 2921.0,445.0 C 3121.0,416.0 3201.0,415.0 3435.0,435.0 C 3579.0,448.0 3830.0,454.0 4148.0,451.0 C 4309.0,450.0 4598.0,363.0 4860.0,237.0 C 4945.0,196.0 5054.0,146.0 5101.0,127.0 C 5178.0,95.0 5457.0,0.0 5473.0,0.0 C 5486.0,0.0 5480.0,33.0 5464.0,51.0 C 5453.0,63.0 5448.0,91.0 5447.0,146.0 C 5445.0,245.0 5461.0,276.0 5550.0,344.0 C 5586.0,371.0 5616.0,395.0 5617.0,399.0 C 5618.0,402.0 5624.0,423.0 5629.0,446.0 C 5639.0,484.0 5645.0,490.0 5744.0,543.0 C 5847.0,599.0 5885.0,632.0 5928.0,702.0 C 5946.0,731.0 5957.0,738.0 5992.0,743.0 C 6018.0,747.0 6040.0,757.0 6050.0,770.0 C 6059.0,782.0 6084.0,795.0 6105.0,800.0 C 6141.0,808.0 6151.0,805.0 6223.0,764.0 C 6318.0,711.0 6330.0,715.0 6330.0,799.0 C 6331.0,846.0 6338.0,869.0 6378.0,945.0 C 6423.0,1030.0 6429.0,1037.0 6515.0,1097.0 C 6604.0,1160.0 6605.0,1161.0 6660.0,1155.0 C 6702.0,1151.0 6727.0,1154.0 6770.0,1171.0 C 6800.0,1183.0 6829.0,1196.0 6833.0,1200.0 C 6841.0,1207.0 6813.0,1384.0 6800.0,1409.0 C 6796.0,1417.0 6773.0,1431.0 6749.0,1441.0 C 6696.0,1461.0 6688.0,1485.0 6725.0,1514.0 C 6750.0,1534.0 6751.0,1536.0 6736.0,1565.0 C 6719.0,1596.0 6723.0,1643.0 6742.0,1667.0 C 6759.0,1688.0 6818.0,1683.0 6825.0,1661.0 C 6828.0,1650.0 6838.0,1636.0 6846.0,1629.0 C 6859.0,1619.0 6870.0,1625.0 6914.0,1669.0 L 6967.0,1722.0 L 7020.0,1706.0 C 7078.0,1689.0 7079.0,1689.0 7145.0,1743.0 L 7175.0,1768.0 L 7223.0,1744.0 C 7249.0,1730.0 7275.0,1722.0 7280.0,1725.0 C 7286.0,1729.0 7290.0,1748.0 7290.0,1768.0 C 7290.0,1828.0 7299.0,1846.0 7336.0,1859.0 C 7358.0,1867.0 7380.0,1886.0 7395.0,1910.0 C 7408.0,1931.0 7441.0,1971.0 7467.0,1998.0 C 7493.0,2026.0 7527.0,2062.0 7541.0,2079.0 C 7567.0,2109.0 7569.0,2110.0 7658.0,2110.0 C 7735.0,2110.0 7751.0,2113.0 7758.0,2128.0 C 7764.0,2137.0 7770.0,2199.0 7772.0,2265.0 C 7775.0,2335.0 7783.0,2397.0 7790.0,2413.0 C 7803.0,2439.0 7802.0,2443.0 7762.0,2483.0 C 7729.0,2517.0 7720.0,2533.0 7720.0,2561.0 C 7720.0,2588.0 7706.0,2615.0 7655.0,2684.0 C 7599.0,2759.0 7590.0,2778.0 7590.0,2814.0 C 7590.0,2852.0 7594.0,2859.0 7630.0,2886.0 C 7676.0,2919.0 7728.0,3014.0 7737.0,3079.0 C 7742.0,3113.0 7739.0,3125.0 7721.0,3144.0 C 7702.0,3165.0 7699.0,3175.0 7705.0,3216.0 C 7709.0,3243.0 7723.0,3281.0 7736.0,3302.0 C 7757.0,3334.0 7774.0,3344.0 7912.0,3398.0 C 7996.0,3431.0 8092.0,3467.0 8125.0,3479.0 C 8174.0,3497.0 8215.0,3528.0 8345.0,3642.0 C 8511.0,3787.0 8653.0,3888.0 8827.0,3984.0 C 8914.0,4032.0 8941.0,4054.0 9015.0,4134.0 C 9092.0,4218.0 9106.0,4229.0 9145.0,4234.0 C 9182.0,4240.0 9192.0,4247.0 9212.0,4279.0 C 9225.0,4300.0 9339.0,4410.0 9465.0,4524.0 C 9619.0,4662.0 9701.0,4743.0 9714.0,4768.0 C 9727.0,4796.0 9748.0,4815.0 9791.0,4839.0 C 9823.0,4857.0 9852.0,4875.0 9855.0,4881.0 C 9859.0,4886.0 9883.0,4890.0 9911.0,4890.0 L 9960.0,4890.0 L 9960.0,4929.0 C 9960.0,4958.0 9966.0,4972.0 9983.0,4983.0 L 10005.0,4999.0 L 9980.0,5019.0 C 9966.0,5031.0 9921.0,5057.0 9880.0,5079.0 C 9838.0,5101.0 9792.0,5132.0 9777.0,5149.0 C 9753.0,5176.0 9540.0,5290.0 9513.0,5290.0 C 9507.0,5290.0 9472.0,5313.0 9434.0,5341.0 C 9396.0,5369.0 9356.0,5397.0 9345.0,5402.0 C 9334.0,5408.0 9290.0,5446.0 9247.0,5486.0 C 9161.0,5567.0 9093.0,5598.0 9045.0,5580.0 C 9016.0,5569.0 9016.0,5569.0 9031.0,5536.0 C 9038.0,5521.0 9073.0,5493.0 9116.0,5469.0 C 9164.0,5441.0 9193.0,5418.0 9200.0,5400.0 C 9208.0,5381.0 9223.0,5369.0 9250.0,5361.0 C 9291.0,5349.0 9336.0,5299.0 9324.0,5279.0 C 9317.0,5268.0 9245.0,5272.0 9191.0,5287.0 C 9169.0,5293.0 9168.0,5291.0 9174.0,5264.0 C 9194.0,5173.0 9194.0,5174.0 9152.0,5113.0 C 9129.0,5081.0 9105.0,5034.0 9099.0,5008.0 C 9088.0,4969.0 9080.0,4959.0 9049.0,4945.0 C 9028.0,4935.0 9007.0,4931.0 9001.0,4934.0 C 8985.0,4944.0 8988.0,4976.0 9006.0,4990.0 C 9015.0,4998.0 9020.0,5015.0 9018.0,5034.0 C 9015.0,5060.0 9006.0,5069.0 8959.0,5095.0 C 8929.0,5111.0 8867.0,5145.0 8822.0,5169.0 C 8768.0,5199.0 8738.0,5222.0 8730.0,5239.0 C 8720.0,5263.0 8697.0,5282.0 8631.0,5319.0 C 8613.0,5329.0 8577.0,5333.0 8513.0,5333.0 C 8421.0,5331.0 8420.0,5332.0 8379.0,5366.0 C 8339.0,5399.0 8336.0,5400.0 8245.0,5400.0 C 8181.0,5400.0 8132.0,5406.0 8088.0,5420.0 C 8024.0,5440.0 7898.0,5443.0 7857.0,5425.0 C 7838.0,5417.0 7754.0,5427.0 7729.0,5441.0 C 7717.0,5447.0 7706.0,5442.0 7690.0,5425.0 C 7673.0,5407.0 7656.0,5400.0 7627.0,5400.0 L 7588.0,5400.0 L 7594.0,5493.0 C 7597.0,5543.0 7605.0,5689.0 7610.0,5815.0 C 7621.0,6055.0 7643.0,6457.0 7685.0,7165.0 C 7737.0,8040.0 7751.0,8586.0 7743.0,9446.0 L 7737.0,10227.0 L 7662.0,10234.0 C 7621.0,10237.0 6629.0,10240.0 5458.0,10240.0 L 3330.0,10240.0 L 3330.0,9529.0" fill="pink"/>
</svg>

<?xml version="1.0" standalone="no"?>
<!DOCTYPE svg PUBLIC "-//W3C//DTD SVG 20010904//EN"
 "http://www.w3.org/TR/2001/REC-SVG-20010904/DTD/svg10.dtd">
<svg version="1.0" xmlns="http://www.w3.org/2000/svg"
 width="1024.000000pt" height="1024.000000pt" viewBox="0 0 1024.000000 1024.000000"
 preserveAspectRatio="xMidYMid meet">
<metadata>
Created by potrace 1.10, written by Peter Selinger 2001-2011
</metadata>
<g transform="translate(0.000000,1024.000000) scale(0.100000,-0.100000)"
fill="#000000" stroke="none">
<path d="M3330 9529 l0 -711 -217 6 c-481 13 -829 17 -845 11 -13 -5 -18 -18
-18 -45 0 -41 1 -42 67 -55 21 -4 51 -26 87 -63 53 -54 55 -56 74 -39 15 14
29 16 61 11 55 -9 80 -30 100 -85 13 -34 28 -51 68 -78 45 -28 54 -40 67 -83
25 -88 51 -115 143 -150 l81 -31 7 -43 c4 -27 14 -50 28 -61 40 -32 80 -93 92
-141 12 -46 13 -47 61 -57 28 -5 63 -20 78 -32 41 -33 56 -30 56 12 0 32 3 35
29 35 40 0 59 -25 37 -49 -16 -17 -14 -21 42 -79 50 -50 67 -62 112 -71 29 -6
64 -20 77 -31 19 -15 41 -20 83 -20 l57 0 12 -41 c10 -34 19 -43 58 -60 75
-32 100 -56 191 -178 l86 -116 1 -67 c0 -64 1 -67 25 -70 20 -2 24 -8 22 -28
-2 -14 -6 -51 -9 -83 l-5 -57 36 -15 c40 -17 42 -23 21 -51 -21 -28 -19 -31
33 -38 26 -4 72 -12 102 -17 30 -5 80 -13 110 -17 72 -10 80 -16 80 -62 l0
-38 69 -7 c48 -5 75 -13 86 -25 9 -10 23 -16 30 -13 10 3 16 -7 21 -34 3 -21
11 -44 17 -51 12 -15 12 -14 -33 -37 l-34 -18 29 -24 30 -24 -58 -51 -58 -51
28 -13 c20 -9 23 -13 9 -13 -14 -1 -17 -6 -13 -23 5 -18 -1 -28 -28 -46 -42
-27 -44 -39 -9 -48 l25 -6 -21 -23 c-12 -13 -24 -41 -27 -62 -5 -36 -2 -41 31
-63 l35 -25 -25 -26 -25 -26 28 -21 c27 -20 27 -21 6 -22 -26 0 -58 -43 -49
-65 3 -8 15 -15 26 -15 17 0 20 -4 15 -22 -4 -13 -10 -26 -14 -30 -3 -4 -699
-3 -1545 2 -1449 9 -1540 8 -1552 -8 -31 -41 -246 -410 -551 -942 -181 -316
-396 -680 -476 -809 -96 -152 -147 -243 -147 -260 0 -20 46 -89 165 -247 90
-120 165 -226 165 -234 0 -8 -13 -37 -29 -63 -23 -39 -41 -55 -92 -80 l-64
-32 3 -139 4 -138 -30 -32 c-83 -86 -99 -144 -62 -216 11 -22 20 -50 20 -63 0
-13 9 -61 21 -106 25 -100 20 -157 -16 -191 -26 -25 -45 -76 -45 -123 0 -20
-11 -39 -40 -64 -22 -20 -40 -44 -40 -54 0 -15 -6 -17 -30 -12 -16 3 -30 2
-30 -2 0 -22 77 -107 118 -131 66 -38 334 -240 412 -311 70 -63 437 -361 498
-404 55 -39 137 -88 227 -135 44 -24 117 -74 161 -112 92 -78 278 -184 427
-243 54 -22 130 -55 169 -75 39 -20 167 -65 284 -100 166 -50 250 -69 385 -89
200 -29 280 -30 514 -10 144 13 395 19 713 16 161 -1 450 -88 712 -214 85 -41
194 -91 241 -110 77 -32 356 -127 372 -127 13 0 7 33 -9 51 -11 12 -16 40 -17
95 -2 99 14 130 103 198 36 27 66 51 67 55 1 3 7 24 12 47 10 38 16 44 115 97
103 56 141 89 184 159 18 29 29 36 64 41 26 4 48 14 58 27 9 12 34 25 55 30
36 8 46 5 118 -36 95 -53 107 -49 107 35 1 47 8 70 48 146 45 85 51 92 137
152 89 63 90 64 145 58 42 -4 67 -1 110 16 30 12 59 25 63 29 8 7 -20 184 -33
209 -4 8 -27 22 -51 32 -53 20 -61 44 -24 73 25 20 26 22 11 51 -17 31 -13 78
6 102 17 21 76 16 83 -6 3 -11 13 -25 21 -32 13 -10 24 -4 68 40 l53 53 53
-16 c58 -17 59 -17 125 37 l30 25 48 -24 c26 -14 52 -22 57 -19 6 4 10 23 10
43 0 60 9 78 46 91 22 8 44 27 59 51 13 21 46 61 72 88 26 28 60 64 74 81 26
30 28 31 117 31 77 0 93 3 100 18 6 9 12 71 14 137 3 70 11 132 18 148 13 26
12 30 -28 70 -33 34 -42 50 -42 78 0 27 -14 54 -65 123 -56 75 -65 94 -65 130
0 38 4 45 40 72 46 33 98 128 107 193 5 34 2 46 -16 65 -19 21 -22 31 -16 72
4 27 18 65 31 86 21 32 38 42 176 96 84 33 180 69 213 81 49 18 90 49 220 163
166 145 308 246 482 342 87 48 114 70 188 150 77 84 91 95 130 100 37 6 47 13
67 45 13 21 127 131 253 245 154 138 236 219 249 244 13 28 34 47 77 71 32 18
61 36 64 42 4 5 28 9 56 9 l49 0 0 39 c0 29 6 43 23 54 l22 16 -25 20 c-14 12
-59 38 -100 60 -42 22 -88 53 -103 70 -24 27 -237 141 -264 141 -6 0 -41 23
-79 51 -38 28 -78 56 -89 61 -11 6 -55 44 -98 84 -86 81 -154 112 -202 94 -29
-11 -29 -11 -14 -44 7 -15 42 -43 85 -67 48 -28 77 -51 84 -69 8 -19 23 -31
50 -39 41 -12 86 -62 74 -82 -7 -11 -79 -7 -133 8 -22 6 -23 4 -17 -23 20 -91
20 -90 -22 -151 -23 -32 -47 -79 -53 -105 -11 -39 -19 -49 -50 -63 -21 -10
-42 -14 -48 -11 -16 10 -13 42 5 56 9 8 14 25 12 44 -3 26 -12 35 -59 61 -30
16 -92 50 -137 74 -54 30 -84 53 -92 70 -10 24 -33 43 -99 80 -18 10 -54 14
-118 14 -92 -2 -93 -1 -134 33 -40 33 -43 34 -134 34 -64 0 -113 6 -157 20
-64 20 -190 23 -231 5 -19 -8 -103 2 -128 16 -12 6 -23 1 -39 -16 -17 -18 -34
-25 -63 -25 l-39 0 6 93 c3 50 11 196 16 322 11 240 33 642 75 1350 52 875 66
1421 58 2281 l-6 781 -75 7 c-41 3 -1033 6 -2204 6 l-2128 0 0 -711z"/>
</g>
</svg>
